X: 5905
T: Cambridge Road
R: hornpipe
M: 4/4
K: Gmajor
G2 B2 G2 B>A|G>DB>A G2 (3cBA|G2 (3FED E>FG>B|A>d^c>d D2 (3DEF|
A2 d2 B2 d2|c2 (3BAG (3ABA A>B|c2 (3BAG F2 (3DEF|G>d (3Bcd G2:|
G>d (3Bcd G2 (3cBA|G2 d2 G2 B>A|G>FG>A B>^AB>^c|d>A (3FGA d2 dc|
B>dG>d A>dF>d|G>FE>F D2 (3edc|B>gf>g e>c (3AAF|G2 B2 G2:|

